static/assets/template/assets/img/icons/essential/detailed/Enterprise.svg

<svg height="150" viewBox="0 0 145 150" width="145" xmlns="http://www.w3.org/2000/svg"><g fill="none" fill-rule="evenodd" transform="translate(1 1)"><g stroke-linecap="round" stroke-linejoin="round" stroke-width="2.0561" transform="translate(0 146)"><path d="m1.4.9h-.8"/><path d="m26.4.9h-21.4"/><path d="m31.1.9h-.9"/><path d="m102.2.9h-66.4"/><path d="m133.2.9h-27.3"/><path d="m138 .9h-1.3"/><path d="m142.1.9h-.3"/></g><path d="m49.9 29.8h42.9v117.4h-42.9z" fill-rule="nonzero"/><path d="m92.8 147.2h-39.2v-110.1c0-1.7 1.4-3 3-3h36.1v113.1z" fill="#b5d6ff" fill-rule="nonzero"/><path d="m49.9 44.4v-14.6h42.9v117.4h-42.9v-88" stroke-linecap="round" stroke-linejoin="round" stroke-width="2.0561"/><path d="m64.4 123.7h14v23.5h-14z" fill-rule="nonzero"/><path d="m78.4 129.6v-.4" stroke-linecap="round" stroke-linejoin="round" stroke-width="2.0561"/><path d="m78.4 124.4v-.7h-14v23.5h14v-9" stroke-linecap="round" stroke-linejoin="round" stroke-width="2.0561"/><g transform="translate(92 62)"><path d="m.8.6h36.5v84.6h-36.5z" fill-rule="nonzero"/><path d="m.2 5h36.5v80.9h-36.5z" fill="#529fff" fill-rule="nonzero"/><path d="m5.6 5h31v80.9h-31z" fill-rule="nonzero"/><g stroke-linecap="round" stroke-linejoin="round" stroke-width="2.0561"><path d="m37.4 31v54.2h-36.6v-84.6h26.5"/><path d="m32.9.6h4.5v21.3"/><path d="m8.6 11.6h21.3"/><path d="m8.6 21.8h21.3"/><path d="m8.6 32.1h21.3"/><path d="m8.6 42.4h21.3"/><path d="m8.6 52.7h21.3"/><path d="m8.6 63h21.3"/></g></g><g transform="translate(13 62)"><path d="m.3.6h36.5v84.6h-36.5z" fill-rule="nonzero"/><path d="m36.8 85.2h-32.5v-77.2c0-2 1.6-3.6 3.6-3.6h28.9z" fill-rule="nonzero"/><g stroke-linecap="round" stroke-linejoin="round" stroke-width="2.0561"><path d="m.3 70.9v-70.3h2.6"/><path d="m23.1.6h13.7v84.6h-36"/><path d="m7.1.6h2.7"/><path d="m8.1 11.6h21.3"/><path d="m8.1 21.8h21.3"/><path d="m8.1 32.1h21.3"/><path d="m8.1 42.4h21.3"/><path d="m8.1 52.7h21.3"/><path d="m8.1 63h21.3"/></g></g><path d="m130.5 38c0 .8-.2 1.5-.6 2.1-.7.9-1.7 1.4-2.8 1.4h-15.8c-.5 0-.9-.1-1.3-.3-1-.7-1.7-1.9-1.7-3.2 0-.2 0-.3 0-.5.2-1.6 1.3-2.9 2.7-3.2 0-.1 0-.1 0-.2 0-2.9 2.2-5.3 4.9-5.3 1.8 0 3.3 1 4.2 2.5.7-.5 1.5-.8 2.4-.8 2.1 0 3.9 1.6 4.4 3.7 1.4 0 2.7.9 3.2 2.2.3.5.4 1 .4 1.6z" stroke-linecap="round" stroke-linejoin="round" stroke-width="2.0561"/><path d="m105.4 34.5h-4.3c-.3 0-.7-.1-1-.2-.7-.5-1.2-1.4-1.2-2.3 0-.1 0-.2 0-.3.1-1.2.9-2.1 2-2.4 0-.1 0-.1 0-.2 0-2.1 1.6-3.8 3.6-3.8 1.3 0 2.4.7 3 1.8.5-.3 1.1-.6 1.7-.6.7 0 1.3.2 1.8.6" stroke-linecap="round" stroke-linejoin="round" stroke-width="2.0561"/><path d="m40.7 16.7c0 .5-.1.9-.4 1.3-.4.6-1.1.9-1.8.9h-9.9c-.3 0-.6-.1-.8-.2-.6-.4-1-1.2-1-2 0-.1 0-.2 0-.3.1-1 .8-1.8 1.7-2v-.1c0-1.9 1.4-3.4 3.1-3.4 1.1 0 2.1.6 2.6 1.6.4-.3 1-.5 1.5-.5 1.3 0 2.5 1 2.8 2.3.9 0 1.7.6 2 1.4.2.3.2.6.2 1z" stroke-linecap="round" stroke-linejoin="round" stroke-width="2.0561"/><path d="m55.4 19.4h32.9v10.3h-32.9z" fill-rule="nonzero"/><path d="m88.3 29.7h-29.1v-5.2c0-1.1.9-2 2-2h27.1z" fill="#b5d6ff" fill-rule="nonzero"/><g stroke-linecap="round" stroke-linejoin="round" stroke-width="2.0561"><path d="m55.4 19.4h32.9v10.3h-32.9z"/><path d="m71.4 19.4v-12.7"/><circle cx="71.5" cy="4" fill-rule="nonzero" r="3.8"/><path d="m58.1 42h27.4"/><path d="m58.1 49.6h27.4"/><path d="m58.1 57.1h27.4"/><path d="m58.1 64.6h27.4"/><path d="m58.1 72.2h27.4"/><path d="m58.1 79.7h27.4"/><path d="m58.1 87.3h27.4"/><path d="m58.1 94.8h27.4"/><path d="m58.1 102.3h27.4"/><path d="m58.1 109.9h27.4"/></g></g></svg>

<?xml version="1.0" encoding="UTF-8"?>
<svg width="145px" height="150px" viewBox="0 0 145 150" version="1.1" xmlns="http://www.w3.org/2000/svg" xmlns:xlink="http://www.w3.org/1999/xlink">
    <!-- Generator: Sketch 51.2 (57519) - http://www.bohemiancoding.com/sketch -->
    <title>Enterprise</title>
    <desc>Created with Sketch.</desc>
    <defs></defs>
    <g id="Page-1" stroke="none" stroke-width="1" fill="none" fill-rule="evenodd">
        <g id="Enterprise" transform="translate(1.000000, 1.000000)">
            <g id="Group" transform="translate(0.000000, 146.000000)" class="stroke-primary-300" stroke-linecap="round" stroke-linejoin="round" stroke-width="2.0561">
                <path d="M1.4,0.9 L0.6,0.9" id="Shape"></path>
                <path d="M26.4,0.9 L5,0.9" id="Shape"></path>
                <path d="M31.1,0.9 L30.2,0.9" id="Shape"></path>
                <path d="M102.2,0.9 L35.8,0.9" id="Shape"></path>
                <path d="M133.2,0.9 L105.9,0.9" id="Shape"></path>
                <path d="M138,0.9 L136.7,0.9" id="Shape"></path>
                <path d="M142.1,0.9 L141.8,0.9" id="Shape"></path>
            </g>
            <rect id="Rectangle-path" class="fill-neutral" fill-rule="nonzero" x="49.9" y="29.8" width="42.9" height="117.4"></rect>
            <path d="M92.8,147.2 L53.6,147.2 L53.6,37.1 C53.6,35.4 55,34.1 56.6,34.1 L92.7,34.1 L92.7,147.2 L92.8,147.2 Z" id="Shape" fill="#B5D6FF" fill-rule="nonzero"></path>
            <polyline id="Shape" class="stroke-primary" stroke-width="2.0561" stroke-linecap="round" stroke-linejoin="round" points="49.9 44.4 49.9 29.8 92.8 29.8 92.8 147.2 49.9 147.2 49.9 59.2"></polyline>
            <rect id="Rectangle-path" class="fill-neutral" fill-rule="nonzero" x="64.4" y="123.7" width="14" height="23.5"></rect>
            <path d="M78.4,129.6 L78.4,129.2" id="Shape" class="stroke-primary" stroke-width="2.0561" stroke-linecap="round" stroke-linejoin="round"></path>
            <polyline id="Shape" class="stroke-primary" stroke-width="2.0561" stroke-linecap="round" stroke-linejoin="round" points="78.4 124.4 78.4 123.7 64.4 123.7 64.4 147.2 78.4 147.2 78.4 138.2"></polyline>
            <g id="Group" transform="translate(92.000000, 62.000000)">
                <rect id="Rectangle-path" class="fill-neutral" fill-rule="nonzero" x="0.8" y="0.6" width="36.5" height="84.6"></rect>
                <rect id="Rectangle-path" fill="#529FFF" fill-rule="nonzero" x="0.2" y="5" width="36.5" height="80.9"></rect>
                <rect id="Rectangle-path" class="fill-primary-500" fill-rule="nonzero" x="5.6" y="5" width="31" height="80.9"></rect>
                <polyline id="Shape" class="stroke-primary" stroke-width="2.0561" stroke-linecap="round" stroke-linejoin="round" points="37.4 31 37.4 85.2 0.8 85.2 0.8 0.6 27.3 0.6"></polyline>
                <polyline id="Shape" class="stroke-primary" stroke-width="2.0561" stroke-linecap="round" stroke-linejoin="round" points="32.9 0.6 37.4 0.6 37.4 21.9"></polyline>
                <path d="M8.6,11.6 L29.9,11.6" id="Shape" class="stroke-primary" stroke-width="2.0561" stroke-linecap="round" stroke-linejoin="round"></path>
                <path d="M8.6,21.8 L29.9,21.8" id="Shape" class="stroke-primary" stroke-width="2.0561" stroke-linecap="round" stroke-linejoin="round"></path>
                <path d="M8.6,32.1 L29.9,32.1" id="Shape" class="stroke-primary" stroke-width="2.0561" stroke-linecap="round" stroke-linejoin="round"></path>
                <path d="M8.6,42.4 L29.9,42.4" id="Shape" class="stroke-primary" stroke-width="2.0561" stroke-linecap="round" stroke-linejoin="round"></path>
                <path d="M8.6,52.7 L29.9,52.7" id="Shape" class="stroke-primary" stroke-width="2.0561" stroke-linecap="round" stroke-linejoin="round"></path>
                <path d="M8.6,63 L29.9,63" id="Shape" class="stroke-primary" stroke-width="2.0561" stroke-linecap="round" stroke-linejoin="round"></path>
            </g>
            <g id="Group" transform="translate(13.000000, 62.000000)">
                <rect id="Rectangle-path" class="fill-neutral" fill-rule="nonzero" x="0.3" y="0.6" width="36.5" height="84.6"></rect>
                <path d="M36.8,85.2 L4.3,85.2 L4.3,8 C4.3,6 5.9,4.4 7.9,4.4 L36.8,4.4 L36.8,85.2 Z" id="Shape" class="fill-primary-500" fill-rule="nonzero"></path>
                <polyline id="Shape" class="stroke-primary" stroke-width="2.0561" stroke-linecap="round" stroke-linejoin="round" points="0.3 70.9 0.3 0.6 2.9 0.6"></polyline>
                <polyline id="Shape" class="stroke-primary" stroke-width="2.0561" stroke-linecap="round" stroke-linejoin="round" points="23.1 0.6 36.8 0.6 36.8 85.2 0.8 85.2"></polyline>
                <path d="M7.1,0.6 L9.8,0.6" id="Shape" class="stroke-primary" stroke-width="2.0561" stroke-linecap="round" stroke-linejoin="round"></path>
                <path d="M8.1,11.6 L29.4,11.6" id="Shape" class="stroke-primary" stroke-width="2.0561" stroke-linecap="round" stroke-linejoin="round"></path>
                <path d="M8.1,21.8 L29.4,21.8" id="Shape" class="stroke-primary" stroke-width="2.0561" stroke-linecap="round" stroke-linejoin="round"></path>
                <path d="M8.1,32.1 L29.4,32.1" id="Shape" class="stroke-primary" stroke-width="2.0561" stroke-linecap="round" stroke-linejoin="round"></path>
                <path d="M8.1,42.4 L29.4,42.4" id="Shape" class="stroke-primary" stroke-width="2.0561" stroke-linecap="round" stroke-linejoin="round"></path>
                <path d="M8.1,52.7 L29.4,52.7" id="Shape" class="stroke-primary" stroke-width="2.0561" stroke-linecap="round" stroke-linejoin="round"></path>
                <path d="M8.1,63 L29.4,63" id="Shape" class="stroke-primary" stroke-width="2.0561" stroke-linecap="round" stroke-linejoin="round"></path>
            </g>
            <path d="M130.5,38 C130.5,38.8 130.3,39.5 129.9,40.1 C129.2,41 128.2,41.5 127.1,41.5 L111.3,41.5 C110.8,41.5 110.4,41.4 110,41.2 C109,40.5 108.3,39.3 108.3,38 C108.3,37.8 108.3,37.7 108.3,37.5 C108.5,35.9 109.6,34.6 111,34.3 C111,34.2 111,34.2 111,34.1 C111,31.2 113.2,28.8 115.9,28.8 C117.7,28.8 119.2,29.8 120.1,31.3 C120.8,30.8 121.6,30.5 122.5,30.5 C124.6,30.5 126.4,32.1 126.9,34.2 C128.3,34.2 129.6,35.1 130.1,36.4 C130.4,36.9 130.5,37.4 130.5,38 Z" id="Shape" class="stroke-primary-300" stroke-width="2.0561" stroke-linecap="round" stroke-linejoin="round"></path>
            <path d="M105.4,34.5 L101.1,34.5 C100.8,34.5 100.4,34.4 100.1,34.3 C99.4,33.8 98.9,32.9 98.9,32 C98.9,31.9 98.9,31.8 98.9,31.7 C99,30.5 99.8,29.6 100.9,29.3 C100.9,29.2 100.9,29.2 100.9,29.1 C100.9,27 102.5,25.3 104.5,25.3 C105.8,25.3 106.9,26 107.5,27.1 C108,26.8 108.6,26.5 109.2,26.5 C109.9,26.5 110.5,26.7 111,27.1" id="Shape" class="stroke-primary-300" stroke-width="2.0561" stroke-linecap="round" stroke-linejoin="round"></path>
            <path d="M40.7,16.7 C40.7,17.2 40.6,17.6 40.3,18 C39.9,18.6 39.2,18.9 38.5,18.9 L28.6,18.9 C28.3,18.9 28,18.8 27.8,18.7 C27.2,18.3 26.8,17.5 26.8,16.7 C26.8,16.6 26.8,16.5 26.8,16.4 C26.9,15.4 27.6,14.6 28.5,14.4 C28.5,14.4 28.5,14.3 28.5,14.3 C28.5,12.4 29.9,10.9 31.6,10.9 C32.7,10.9 33.7,11.5 34.2,12.5 C34.6,12.2 35.2,12 35.7,12 C37,12 38.2,13 38.5,14.3 C39.4,14.3 40.2,14.9 40.5,15.7 C40.7,16 40.7,16.3 40.7,16.7 Z" id="Shape" class="stroke-primary-300" stroke-width="2.0561" stroke-linecap="round" stroke-linejoin="round"></path>
            <rect id="Rectangle-path" class="fill-neutral" fill-rule="nonzero" x="55.4" y="19.4" width="32.9" height="10.3"></rect>
            <path d="M88.3,29.7 L59.2,29.7 L59.2,24.5 C59.2,23.4 60.1,22.5 61.2,22.5 L88.3,22.5 L88.3,29.7 Z" id="Shape" fill="#B5D6FF" fill-rule="nonzero"></path>
            <rect id="Rectangle-path" class="stroke-primary" stroke-width="2.0561" stroke-linecap="round" stroke-linejoin="round" x="55.4" y="19.4" width="32.9" height="10.3"></rect>
            <path d="M71.4,19.4 L71.4,6.7" id="Shape" class="stroke-primary" stroke-width="2.0561" stroke-linecap="round" stroke-linejoin="round"></path>
            <circle id="Oval" class="stroke-primary" stroke-width="2.0561" class="fill-primary-300" fill-rule="nonzero" stroke-linecap="round" stroke-linejoin="round" cx="71.5" cy="4" r="3.8"></circle>
            <path d="M58.1,42 L85.5,42" id="Shape" class="stroke-primary" stroke-width="2.0561" stroke-linecap="round" stroke-linejoin="round"></path>
            <path d="M58.1,49.6 L85.5,49.6" id="Shape" class="stroke-primary" stroke-width="2.0561" stroke-linecap="round" stroke-linejoin="round"></path>
            <path d="M58.1,57.1 L85.5,57.1" id="Shape" class="stroke-primary" stroke-width="2.0561" stroke-linecap="round" stroke-linejoin="round"></path>
            <path d="M58.1,64.6 L85.5,64.6" id="Shape" class="stroke-primary" stroke-width="2.0561" stroke-linecap="round" stroke-linejoin="round"></path>
            <path d="M58.1,72.2 L85.5,72.2" id="Shape" class="stroke-primary" stroke-width="2.0561" stroke-linecap="round" stroke-linejoin="round"></path>
            <path d="M58.1,79.7 L85.5,79.7" id="Shape" class="stroke-primary" stroke-width="2.0561" stroke-linecap="round" stroke-linejoin="round"></path>
            <path d="M58.1,87.3 L85.5,87.3" id="Shape" class="stroke-primary" stroke-width="2.0561" stroke-linecap="round" stroke-linejoin="round"></path>
            <path d="M58.1,94.8 L85.5,94.8" id="Shape" class="stroke-primary" stroke-width="2.0561" stroke-linecap="round" stroke-linejoin="round"></path>
            <path d="M58.1,102.3 L85.5,102.3" id="Shape" class="stroke-primary" stroke-width="2.0561" stroke-linecap="round" stroke-linejoin="round"></path>
            <path d="M58.1,109.9 L85.5,109.9" id="Shape" class="stroke-primary" stroke-width="2.0561" stroke-linecap="round" stroke-linejoin="round"></path>
        </g>
    </g>
</svg>
